X:11619
T:N'Uviéu nun me caso (MQ 020)
R:Fandangu
C:Tradicional
S:Música Tradicional Asturiana, (C) Tello & Tito. Asturies, 2001.
S:http://pagina.de/MusTradAst <telloytito@asturies.org>
N:Es una de las canciones asturianas más conocidas.
N:Es muy sencilla y por tanto una de las más apropiadas para iniciarse en el manejo de la gaita.
N:En la zona de Quirós y Teberga la incluyen los gaiteros en la jota para las mudanzas del "paseillo".
A:Asturies
Z:Manolo Quirós 020
M:3/8
L:1/8
Q:3/8=80
K:C
|DED|C3|DED|C3|DEF|G2 F|G2 F|E3|
DED|C3|DED|C3|DEF|G2 F|G2 F|EFE|
F2 E|DEF|E2 D|CFE|F2 E|DEF|E2 D|CFE|
F2 E|DEF|E2 D|CFE|F2 E|DGF|E2 D|C3|


